assets/icons/standard/folder.svg

<?xml version="1.0"?><svg xmlns="http://www.w3.org/2000/svg" width="100" height="100" viewBox="0 0 100 100"><path fill="#fff" d="m75 34.7h-28.4c-1.8 0-3.4-1-4.4-2.5l-4.4-7.6c-0.8-1.6-2.4-2.6-4.3-2.6h-8.5c-2.8 0-5 2.3-5 5.1v45.8c0 2.8 2.2 5.1 5 5.1h50c2.8 0 5-2.3 5-5.1v-33.1c0-2.8-2.2-5.1-5-5.1z m0-10.2h-30.1c-0.5 0-0.8 0.5-0.5 0.9l2 3.4c0.2 0.5 0.6 0.8 1.1 0.8h27.5c1.4 0 2.8 0.3 3.9 0.8 0.5 0.3 1.1-0.1 1.1-0.8 0-2.8-2.2-5.1-5-5.1z"></path></svg>

<svg xmlns="http://www.w3.org/2000/svg" x="0px" y="0px"
	 width="100px" height="100px" viewBox="0 0 100 100" enable-background="new 0 0 100 100" xml:space="preserve">
<path fill="#FFFFFF" d="M75,34.7H46.6c-1.8,0-3.4-1-4.4-2.5l-4.4-7.6C37,23,35.4,22,33.5,22H25c-2.8,0-5,2.3-5,5.1v10.2v35.6
	c0,2.8,2.2,5.1,5,5.1h50c2.8,0,5-2.3,5-5.1V39.8C80,37,77.8,34.7,75,34.7z"/>
<path fill="#FFFFFF" d="M75,24.5H44.9c-0.5,0-0.8,0.5-0.5,0.9l2,3.4c0.2,0.5,0.6,0.8,1.1,0.8H75c1.4,0,2.8,0.3,3.9,0.8
	c0.5,0.3,1.1-0.1,1.1-0.8l0,0C80,26.8,77.8,24.5,75,24.5z"/>
</svg>
